X: 13803
T: Four Courts Highland, The
R: strathspey
M: 4/4
K: Dmajor
(3dcB|A>D (3FED A>DB>G|A>D (3FED G2 F>G|A>D (3FDD A>DF>A|(3Bcd c>A G2 (3dcB|
A>D (3FDD A>DB>D|A>D (3FDD G>z-z>B|(3ADD F>D A>DF>A|(3Bcd c>A G2||
F>E|D>Dc>A d>Ac>A|(3ded c>A G2 F>E|D2 c>A d>AA>A|(3Bcd c>A G2 F>E|
D>Dc>A d>AA>e|d>dd>B A2 B>c|d>fe>d c>AA>A|(3Bcd c>A G2-||
G>B|A>F (3FFF B>GG>G|A>F (3AFF G2 F>G|A>F (3AFF B>G (3BGG|d>B (3cBA G2 F>G|
A>F (3AFF B>G (3BGG|A>F (3AFF G2 F>G|(3ABA F>A B>G (3BGG|d>B (3cBA G2||

